X: 15806
T: Goodnatured Man, The
R: hornpipe
M: 4/4
K: Gmajor
(3def|:g2 bg dg gd|Bc dB G2 AB|cd ec AA AG|FG AB cd ef|
g2 bg dg gd|Bc dB G2 AB|ce dc BA GF|1 A2 G2 G2 (3def:|2 A2 GF GA Bc||
~d3B ~g2 gf|ec ec ~a2 ag|f2 fe df af|(3gba (3gfe d2 (3def|
g2 bg dg gd|Bc dB G2 AB|ce dc BA GF|A2 GF GA Bc|
~d3B ~g2 gf|ec ec ~a2 ag|f2 fa g3b|(3aba (3gfe d2 (3def|
g2 bg dg gd|Bc dB G2 AB|ce dc BA GF|A2 G2 G2||

